!!!OTL: Molihua
!!!ARE: Asia, China,ÿHeilongjiang, Qiqihaer
!! III, 57
!!!SCT: C1543
!!!YEM: Copyright 1995, estate of Helmut Schaffrath.
**kern
*ICvox
*Ivox
!! Mixed meters:  2/4; 3/4
*M3/4
*k[f#]
*G:
{8.b
16b
8ee
8ee
=1
8r
4dd
8b
=2
4a
4a
=3
8g
8a
4g}
=4
{8r
8ee
8.ee
16cc
4dd
=5
8r
8ee
8.ee
16cc
4dd
=6
*M2/4
4cc
4ee
=7
8r
8dd
8dd
8b
=8
4a
8a
8b
=9
8g
8a
4g}
=10
{8r
4ee
8cc
=11
4dd
4dd
=12
8r
4cc
8ee
=13
4dd
8gg
8b
=14
8a
8b
8a
8g
=15
8e
8d
4e}
=16
{8r
8a
8a
8a
=17
8a
8e
4g
=18
8a
8a
8a
8a
=19
8a
8a
8a
8a
=20
8r
4a
8e
=21
2d}
==
!!!AGN: Xiaodiao, Gailiangdiao
!!!AMT: irregular
!!!AIN: vox
!!!EED: Helmut Schaffrath
!!!EEV: 1.0
*-
